; generated by PrusaSlicer 2.8.0 on 2025-05-08 at 08:18:45 UTC

; 

; external perimeters extrusion width = 0.45mm
; perimeters extrusion width = 0.45mm
; infill extrusion width = 0.45mm
; solid infill extrusion width = 0.45mm
; top infill extrusion width = 0.40mm
; first layer extrusion width = 0.70mm

;TYPE:Custom
G1 Z200 F1000
G1 G28 X0 Y0
G1 E10
G1 X57.027 Y7.063   
G1 Z154.15 F7200
G1 X57.027 Y7.063
G92 E0
;TYPE:Perimeter
;WIDTH:0.449999
G1 F3600
G1 X57.034 Y7.046 E.00062
G1 X57.378 Y6.867 E.01375
G1 X142.509 Y6.867 E2.89533
G1 X142.941 Y7.046 E2.91116
G1 X143.12 Y7.478 E2.92699
G1 X143.12 Y92.52 E5.80556
G1 X143.11 Y92.626 E5.80916
G1 X142.941 Y92.952 E5.82159
G1 X142.597 Y93.131 E5.83472
G1 X57.466 Y93.131 E8.7163
G1 X57.034 Y92.952 E8.73213
G1 X56.856 Y92.608 E8.74524
G1 X56.856 Y7.478 E11.62678
G1 X57.004 Y7.118 E11.63996
G1 X57.004 Y7.118 F7200
G1 X57.32 Y7.34
;TYPE:External perimeter
G1 F1800
G1 X57.322 Y7.334 E11.64017
G1 X57.466 Y7.274 E11.64545
G1 X142.509 Y7.274 E14.52405
G1 X142.653 Y7.334 E14.52933
G1 X142.713 Y7.478 E14.53461
G1 X142.713 Y92.52 E17.41318
G1 X142.653 Y92.664 E17.41846
G1 X142.509 Y92.724 E17.42374
G1 X57.466 Y92.724 E20.30234
G1 X57.322 Y92.664 E20.30762
G1 X57.263 Y92.52 E20.31289
G1 X57.263 Y7.478 E23.19146
G1 X57.297 Y7.395 E23.1945
G1 X57.68 Y7.281 F7200
G1 E16.6945 F1500
G92 E0
G1 X144.355 Y94.367 F7200
G1 E6.5 F1500
;TYPE:Perimeter
G1 F3600
G1 X55.62 Y94.367 E9.50357
G1 X55.62 Y5.631 E12.50717
G1 X144.355 Y5.631 E15.51074
G1 X144.355 Y94.307 E18.51231
G1 X144.355 Y94.307 F7200
G1 X144.762 Y94.774
;TYPE:External perimeter
G1 F1800
G1 X55.212 Y94.774 E21.54347
G1 X55.212 Y5.224 E24.57463
G1 X144.762 Y5.224 E27.60579
G1 X144.762 Y94.714 E30.63492
G1 X144.367 Y94.773 F7200
G1 E24.13492 F1500
G92 E0
G1 X61.063 Y5.936 F7200
G1 E6.5 F1500
;TYPE:Internal infill
;WIDTH:0.45
G1 F4800
G1 X63.506 Y5.936 E6.58269
G1 X64.131 Y6.562 E6.61263
G1 X66.785 Y6.562 E6.70246
G1 X67.41 Y5.936 E6.7324
G1 X75.02 Y5.936 E6.98999
G1 X75.645 Y6.562 E7.01993
G1 X78.299 Y6.562 E7.10976
G1 X78.924 Y5.936 E7.1397
G1 X86.534 Y5.936 E7.39729
G1 X87.159 Y6.562 E7.42723
G1 X89.813 Y6.562 E7.51706
G1 X90.438 Y5.936 E7.547
G1 X98.048 Y5.936 E7.80459
G1 X98.673 Y6.562 E7.83453
G1 X101.327 Y6.562 E7.92436
G1 X101.952 Y5.936 E7.9543
G1 X109.562 Y5.936 E8.21189
G1 X110.187 Y6.562 E8.24183
G1 X112.841 Y6.562 E8.33166
G1 X113.466 Y5.936 E8.3616
G1 X121.076 Y5.936 E8.61919
G1 X121.701 Y6.562 E8.64913
G1 X124.355 Y6.562 E8.73896
G1 X124.98 Y5.936 E8.7689
G1 X132.59 Y5.936 E9.02649
G1 X133.215 Y6.562 E9.05643
G1 X135.869 Y6.562 E9.14626
G1 X136.494 Y5.936 E9.1762
G1 X144.05 Y5.936 E9.43196
G1 X144.05 Y9.894 E9.56593
G1 X143.425 Y10.519 E9.59585
G1 X143.425 Y16.772 E9.80751
G1 X144.05 Y17.397 E9.83743
G1 X144.05 Y21.408 E9.9732
G1 X143.425 Y22.033 E10.00312
G1 X143.425 Y28.285 E10.21474
G1 X144.05 Y28.911 E10.24468
G1 X144.05 Y32.922 E10.38045
G1 X143.425 Y33.547 E10.41037
G1 X143.425 Y39.799 E10.62199
G1 X144.05 Y40.425 E10.65193
G1 X144.05 Y44.436 E10.7877
G1 X143.425 Y45.061 E10.81762
G1 X143.425 Y51.313 E11.02924
G1 X144.05 Y51.938 E11.05916
G1 X144.05 Y55.95 E11.19496
G1 X143.425 Y56.575 E11.22488
G1 X143.425 Y62.827 E11.4365
G1 X144.05 Y63.452 E11.46642
G1 X144.05 Y67.464 E11.60222
G1 X143.425 Y68.089 E11.63214
G1 X143.425 Y74.341 E11.84376
G1 X144.05 Y74.966 E11.87368
G1 X144.05 Y78.978 E12.00948
G1 X143.425 Y79.603 E12.0394
G1 X143.425 Y85.855 E12.25102
G1 X144.05 Y86.48 E12.28094
G1 X144.05 Y90.492 E12.41674
G1 X143.425 Y91.117 E12.44666
G1 X143.411 Y92.69 E12.49991
G1 X143.16 Y93.172 E12.5183
G1 X142.679 Y93.422 E12.53665
G1 X141.105 Y93.436 E12.58993
G1 X140.48 Y94.061 E12.61985
G1 X140.117 Y94.061 E12.63214
G1 X139.492 Y93.436 E12.66206
G1 X129.592 Y93.436 E12.99716
G1 X128.966 Y94.061 E13.0271
G1 X128.603 Y94.061 E13.03939
G1 X127.978 Y93.436 E13.06931
G1 X118.078 Y93.436 E13.40441
G1 X117.453 Y94.061 E13.43433
G1 X117.089 Y94.061 E13.44665
G1 X116.464 Y93.436 E13.47657
G1 X106.564 Y93.436 E13.81167
G1 X105.939 Y94.061 E13.84159
G1 X105.575 Y94.061 E13.85391
G1 X104.95 Y93.436 E13.88383
G1 X95.05 Y93.436 E14.21893
G1 X94.425 Y94.061 E14.24885
G1 X94.061 Y94.061 E14.26117
G1 X93.436 Y93.436 E14.29109
G1 X83.536 Y93.436 E14.62619
G1 X82.911 Y94.061 E14.65611
G1 X82.547 Y94.061 E14.66843
G1 X81.922 Y93.436 E14.69835
G1 X72.022 Y93.436 E15.03345
G1 X71.397 Y94.061 E15.06337
G1 X71.034 Y94.061 E15.07566
G1 X70.408 Y93.436 E15.1056
G1 X60.508 Y93.436 E15.4407
G1 X59.883 Y94.061 E15.47062
G1 X59.52 Y94.061 E15.48291
G1 X58.895 Y93.436 E15.51283
G1 X57.446 Y93.436 E15.56188
G1 X56.817 Y93.176 E15.58492
G1 X56.565 Y92.69 E15.60345
G1 X56.55 Y91.092 E15.65754
G1 X55.925 Y90.467 E15.68746
G1 X55.925 Y86.505 E15.82157
G1 X56.55 Y85.88 E15.85149
G1 X56.55 Y79.578 E16.06481
G1 X55.925 Y78.953 E16.09473
G1 X55.925 Y74.991 E16.22884
G1 X56.55 Y74.366 E16.25876
G1 X56.55 Y68.064 E16.47208
G1 X55.925 Y67.439 E16.502
G1 X55.925 Y63.478 E16.63608
G1 X56.55 Y62.852 E16.66602
G1 X56.55 Y56.55 E16.87934
G1 X55.925 Y55.925 E16.90926
G1 X55.925 Y51.964 E17.04334
G1 X56.55 Y51.338 E17.07328
G1 X56.55 Y45.036 E17.2866
G1 X55.925 Y44.411 E17.31652
G1 X55.925 Y40.45 E17.4506
G1 X56.55 Y39.824 E17.48054
G1 X56.55 Y33.522 E17.69386
G1 X55.925 Y32.897 E17.72378
G1 X55.925 Y28.936 E17.85786
G1 X56.55 Y28.31 E17.8878
G1 X56.55 Y22.008 E18.10112
G1 X55.925 Y21.383 E18.13104
G1 X55.925 Y17.422 E18.26512
G1 X56.55 Y16.796 E18.29506
G1 X56.55 Y10.494 E18.50838
G1 X55.925 Y9.869 E18.5383
G1 X55.925 Y7.427 E18.62096
;LAYER_CHANGE
;Z:154.35
;HEIGHT:0.200012
G1 Z154.35 F7200
G1 X57.027 Y7.063
G92 E0
;TYPE:Perimeter
;WIDTH:0.449999
G1 F3600
G1 X57.034 Y7.046 E.00062
G1 X57.378 Y6.867 E.01375
G1 X142.509 Y6.867 E2.89533
G1 X142.941 Y7.046 E2.91116
G1 X143.12 Y7.478 E2.92699
G1 X143.12 Y92.52 E5.80556
G1 X143.11 Y92.626 E5.80916
G1 X142.941 Y92.952 E5.82159
G1 X142.597 Y93.131 E5.83472
G1 X57.466 Y93.131 E8.7163
G1 X57.034 Y92.952 E8.73213
G1 X56.856 Y92.608 E8.74524
G1 X56.856 Y7.478 E11.62678
G1 X57.004 Y7.118 E11.63996
G1 X57.004 Y7.118 F7200
G1 X57.32 Y7.34
;TYPE:External perimeter
G1 F1800
G1 X57.322 Y7.334 E11.64017
G1 X57.466 Y7.274 E11.64545
G1 X142.509 Y7.274 E14.52405
G1 X142.653 Y7.334 E14.52933
G1 X142.713 Y7.478 E14.53461
G1 X142.713 Y92.52 E17.41318
G1 X142.653 Y92.664 E17.41846
G1 X142.509 Y92.724 E17.42374
G1 X57.466 Y92.724 E20.30234
G1 X57.322 Y92.664 E20.30762
G1 X57.263 Y92.52 E20.31289
G1 X57.263 Y7.478 E23.19146
G1 X57.297 Y7.395 E23.1945
G1 X57.68 Y7.281 F7200
G1 E16.6945 F1500
G92 E0
G1 X144.355 Y94.367 F7200
G1 E6.5 F1500
;TYPE:Perimeter
G1 F3600
G1 X55.62 Y94.367 E9.50357
G1 X55.62 Y5.631 E12.50717
G1 X144.355 Y5.631 E15.51074
G1 X144.355 Y94.307 E18.51231
G1 X144.355 Y94.307 F7200
G1 X144.762 Y94.774
;TYPE:External perimeter
G1 F1800
G1 X55.212 Y94.774 E21.54347
G1 X55.212 Y5.224 E24.57463
G1 X144.762 Y5.224 E27.60579
G1 X144.762 Y94.714 E30.63492
G1 X144.367 Y94.773 F7200
G1 E24.13492 F1500
G92 E0
G1 X61.063 Y5.936 F7200
G1 E6.5 F1500
;TYPE:Internal infill
;WIDTH:0.45
G1 F4800
G1 X63.506 Y5.936 E6.58269
G1 X64.131 Y6.562 E6.61263
G1 X66.785 Y6.562 E6.70246
G1 X67.41 Y5.936 E6.7324
G1 X75.02 Y5.936 E6.98999
G1 X75.645 Y6.562 E7.01993
G1 X78.299 Y6.562 E7.10976
G1 X78.924 Y5.936 E7.1397
G1 X86.534 Y5.936 E7.39729
G1 X87.159 Y6.562 E7.42723
G1 X89.813 Y6.562 E7.51706
G1 X90.438 Y5.936 E7.547
G1 X98.048 Y5.936 E7.80459
G1 X98.673 Y6.562 E7.83453
G1 X101.327 Y6.562 E7.92436
G1 X101.952 Y5.936 E7.9543
G1 X109.562 Y5.936 E8.21189
G1 X110.187 Y6.562 E8.24183
G1 X112.841 Y6.562 E8.33166
G1 X113.466 Y5.936 E8.3616
G1 X121.076 Y5.936 E8.61919
G1 X121.701 Y6.562 E8.64913
G1 X124.355 Y6.562 E8.73896
G1 X124.98 Y5.936 E8.7689
G1 X132.59 Y5.936 E9.02649
G1 X133.215 Y6.562 E9.05643
G1 X135.869 Y6.562 E9.14626
G1 X136.494 Y5.936 E9.1762
G1 X144.05 Y5.936 E9.43196
G1 X144.05 Y9.894 E9.56593
G1 X143.425 Y10.519 E9.59585
G1 X143.425 Y16.772 E9.80751
G1 X144.05 Y17.397 E9.83743
G1 X144.05 Y21.408 E9.9732
G1 X143.425 Y22.033 E10.00312
G1 X143.425 Y28.285 E10.21474
G1 X144.05 Y28.911 E10.24468
G1 X144.05 Y32.922 E10.38045
G1 X143.425 Y33.547 E10.41037
G1 X143.425 Y39.799 E10.62199
G1 X144.05 Y40.425 E10.65193
G1 X144.05 Y44.436 E10.7877
G1 X143.425 Y45.061 E10.81762
G1 X143.425 Y51.313 E11.02924
G1 X144.05 Y51.938 E11.05916
G1 X144.05 Y55.95 E11.19496
G1 X143.425 Y56.575 E11.22488
G1 X143.425 Y62.827 E11.4365
G1 X144.05 Y63.452 E11.46642
G1 X144.05 Y67.464 E11.60222
G1 X143.425 Y68.089 E11.63214
G1 X143.425 Y74.341 E11.84376
G1 X144.05 Y74.966 E11.87368
G1 X144.05 Y78.978 E12.00948
G1 X143.425 Y79.603 E12.0394
G1 X143.425 Y85.855 E12.25102
G1 X144.05 Y86.48 E12.28094
G1 X144.05 Y90.492 E12.41674
G1 X143.425 Y91.117 E12.44666
G1 X143.411 Y92.69 E12.49991
G1 X143.16 Y93.172 E12.5183
G1 X142.679 Y93.422 E12.53665
G1 X141.105 Y93.436 E12.58993
G1 X140.48 Y94.061 E12.61985
G1 X140.117 Y94.061 E12.63214
G1 X139.492 Y93.436 E12.66206
G1 X129.592 Y93.436 E12.99716
G1 X128.966 Y94.061 E13.0271
G1 X128.603 Y94.061 E13.03939
G1 X127.978 Y93.436 E13.06931
G1 X118.078 Y93.436 E13.40441
G1 X117.453 Y94.061 E13.43433
G1 X117.089 Y94.061 E13.44665
G1 X116.464 Y93.436 E13.47657
G1 X106.564 Y93.436 E13.81167
G1 X105.939 Y94.061 E13.84159
G1 X105.575 Y94.061 E13.85391
G1 X104.95 Y93.436 E13.88383
G1 X95.05 Y93.436 E14.21893
G1 X94.425 Y94.061 E14.24885
G1 X94.061 Y94.061 E14.26117
G1 X93.436 Y93.436 E14.29109
G1 X83.536 Y93.436 E14.62619
G1 X82.911 Y94.061 E14.65611
G1 X82.547 Y94.061 E14.66843
G1 X81.922 Y93.436 E14.69835
G1 X72.022 Y93.436 E15.03345
G1 X71.397 Y94.061 E15.06337
G1 X71.034 Y94.061 E15.07566
G1 X70.408 Y93.436 E15.1056
G1 X60.508 Y93.436 E15.4407
G1 X59.883 Y94.061 E15.47062
G1 X59.52 Y94.061 E15.48291
G1 X58.895 Y93.436 E15.51283
G1 X57.446 Y93.436 E15.56188
G1 X56.817 Y93.176 E15.58492
G1 X56.565 Y92.69 E15.60345
G1 X56.55 Y91.092 E15.65754
G1 X55.925 Y90.467 E15.68746
G1 X55.925 Y86.505 E15.82157
G1 X56.55 Y85.88 E15.85149
G1 X56.55 Y79.578 E16.06481
G1 X55.925 Y78.953 E16.09473
G1 X55.925 Y74.991 E16.22884
G1 X56.55 Y74.366 E16.25876
G1 X56.55 Y68.064 E16.47208
G1 X55.925 Y67.439 E16.502
G1 X55.925 Y63.478 E16.63608
G1 X56.55 Y62.852 E16.66602
G1 X56.55 Y56.55 E16.87934
G1 X55.925 Y55.925 E16.90926
G1 X55.925 Y51.964 E17.04334
G1 X56.55 Y51.338 E17.07328
G1 X56.55 Y45.036 E17.2866
G1 X55.925 Y44.411 E17.31652
G1 X55.925 Y40.45 E17.4506
G1 X56.55 Y39.824 E17.48054
G1 X56.55 Y33.522 E17.69386
G1 X55.925 Y32.897 E17.72378
G1 X55.925 Y28.936 E17.85786
G1 X56.55 Y28.31 E17.8878
G1 X56.55 Y22.008 E18.10112
G1 X55.925 Y21.383 E18.13104
G1 X55.925 Y17.422 E18.26512
G1 X56.55 Y16.796 E18.29506
G1 X56.55 Y10.494 E18.50838
G1 X55.925 Y9.869 E18.5383
G1 X55.925 Y7.427 E18.62096
;LAYER_CHANGE
;Z:154.55
;HEIGHT:0.199997
G1 Z154.55 F7200
G1 X57.027 Y7.063
G92 E0
;TYPE:Perimeter
;WIDTH:0.449999
G1 F3600
G1 X57.034 Y7.046 E.00062
G1 X57.378 Y6.867 E.01375
G1 X142.509 Y6.867 E2.89533
G1 X142.941 Y7.046 E2.91116
G1 X143.12 Y7.478 E2.92699
G1 X143.12 Y92.52 E5.80556
G1 X143.11 Y92.626 E5.80916
G1 X142.941 Y92.952 E5.82159
G1 X142.597 Y93.131 E5.83472
G1 X57.466 Y93.131 E8.7163
G1 X57.034 Y92.952 E8.73213
G1 X56.856 Y92.608 E8.74524
G1 X56.856 Y7.478 E11.62678
G1 X57.004 Y7.118 E11.63996
G1 X57.004 Y7.118 F7200
G1 X57.32 Y7.34
;TYPE:External perimeter
G1 F1800
G1 X57.322 Y7.334 E11.64017
G1 X57.466 Y7.274 E11.64545
G1 X142.509 Y7.274 E14.52405
G1 X142.653 Y7.334 E14.52933
G1 X142.713 Y7.478 E14.53461
G1 X142.713 Y92.52 E17.41318
G1 X142.653 Y92.664 E17.41846
G1 X142.509 Y92.724 E17.42374
G1 X57.466 Y92.724 E20.30234
G1 X57.322 Y92.664 E20.30762
G1 X57.263 Y92.52 E20.31289
G1 X57.263 Y7.478 E23.19146
G1 X57.297 Y7.395 E23.1945
G1 X57.68 Y7.281 F7200
G1 E16.6945 F1500
G92 E0
G1 X144.355 Y94.367 F7200
G1 E6.5 F1500
;TYPE:Perimeter
G1 F3600
G1 X55.62 Y94.367 E9.50357
G1 X55.62 Y5.631 E12.50717
G1 X144.355 Y5.631 E15.51074
G1 X144.355 Y94.307 E18.51231
G1 X144.355 Y94.307 F7200
G1 X144.762 Y94.774
;TYPE:External perimeter
G1 F1800
G1 X55.212 Y94.774 E21.54347
G1 X55.212 Y5.224 E24.57463
G1 X144.762 Y5.224 E27.60579
G1 X144.762 Y94.714 E30.63492
G1 X144.367 Y94.773 F7200
G1 E24.13492 F1500
G92 E0
G1 X61.063 Y5.936 F7200
G1 E6.5 F1500
;TYPE:Internal infill
;WIDTH:0.45
G1 F4800
G1 X63.506 Y5.936 E6.58269
G1 X64.131 Y6.562 E6.61263
G1 X66.785 Y6.562 E6.70246
G1 X67.41 Y5.936 E6.7324
G1 X75.02 Y5.936 E6.98999
G1 X75.645 Y6.562 E7.01993
G1 X78.299 Y6.562 E7.10976
G1 X78.924 Y5.936 E7.1397
G1 X86.534 Y5.936 E7.39729
G1 X87.159 Y6.562 E7.42723
G1 X89.813 Y6.562 E7.51706
G1 X90.438 Y5.936 E7.547
G1 X98.048 Y5.936 E7.80459
G1 X98.673 Y6.562 E7.83453
G1 X101.327 Y6.562 E7.92436
G1 X101.952 Y5.936 E7.9543
G1 X109.562 Y5.936 E8.21189
G1 X110.187 Y6.562 E8.24183
G1 X112.841 Y6.562 E8.33166
G1 X113.466 Y5.936 E8.3616
G1 X121.076 Y5.936 E8.61919
G1 X121.701 Y6.562 E8.64913
G1 X124.355 Y6.562 E8.73896
G1 X124.98 Y5.936 E8.7689
G1 X132.59 Y5.936 E9.02649
G1 X133.215 Y6.562 E9.05643
G1 X135.869 Y6.562 E9.14626
G1 X136.494 Y5.936 E9.1762
G1 X144.05 Y5.936 E9.43196
G1 X144.05 Y9.894 E9.56593
G1 X143.425 Y10.519 E9.59585
G1 X143.425 Y16.772 E9.80751
G1 X144.05 Y17.397 E9.83743
G1 X144.05 Y21.408 E9.9732
G1 X143.425 Y22.033 E10.00312
G1 X143.425 Y28.285 E10.21474
G1 X144.05 Y28.911 E10.24468
G1 X144.05 Y32.922 E10.38045
G1 X143.425 Y33.547 E10.41037
G1 X143.425 Y39.799 E10.62199
G1 X144.05 Y40.425 E10.65193
G1 X144.05 Y44.436 E10.7877
G1 X143.425 Y45.061 E10.81762
G1 X143.425 Y51.313 E11.02924
G1 X144.05 Y51.938 E11.05916
G1 X144.05 Y55.95 E11.19496
G1 X143.425 Y56.575 E11.22488
G1 X143.425 Y62.827 E11.4365
G1 X144.05 Y63.452 E11.46642
G1 X144.05 Y67.464 E11.60222
G1 X143.425 Y68.089 E11.63214
G1 X143.425 Y74.341 E11.84376
G1 X144.05 Y74.966 E11.87368
G1 X144.05 Y78.978 E12.00948
G1 X143.425 Y79.603 E12.0394
G1 X143.425 Y85.855 E12.25102
G1 X144.05 Y86.48 E12.28094
G1 X144.05 Y90.492 E12.41674
G1 X143.425 Y91.117 E12.44666
G1 X143.411 Y92.69 E12.49991
G1 X143.16 Y93.172 E12.5183
G1 X142.679 Y93.422 E12.53665
G1 X141.105 Y93.436 E12.58993
G1 X140.48 Y94.061 E12.61985
G1 X140.117 Y94.061 E12.63214
G1 X139.492 Y93.436 E12.66206
G1 X129.592 Y93.436 E12.99716
G1 X128.966 Y94.061 E13.0271
G1 X128.603 Y94.061 E13.03939
G1 X127.978 Y93.436 E13.06931
G1 X118.078 Y93.436 E13.40441
G1 X117.453 Y94.061 E13.43433
G1 X117.089 Y94.061 E13.44665
G1 X116.464 Y93.436 E13.47657
G1 X106.564 Y93.436 E13.81167
G1 X105.939 Y94.061 E13.84159
G1 X105.575 Y94.061 E13.85391
G1 X104.95 Y93.436 E13.88383
G1 X95.05 Y93.436 E14.21893
G1 X94.425 Y94.061 E14.24885
G1 X94.061 Y94.061 E14.26117
G1 X93.436 Y93.436 E14.29109
G1 X83.536 Y93.436 E14.62619
G1 X82.911 Y94.061 E14.65611
G1 X82.547 Y94.061 E14.66843
G1 X81.922 Y93.436 E14.69835
G1 X72.022 Y93.436 E15.03345
G1 X71.397 Y94.061 E15.06337
G1 X71.034 Y94.061 E15.07566
G1 X70.408 Y93.436 E15.1056
G1 X60.508 Y93.436 E15.4407
G1 X59.883 Y94.061 E15.47062
G1 X59.52 Y94.061 E15.48291
G1 X58.895 Y93.436 E15.51283
G1 X57.446 Y93.436 E15.56188
G1 X56.817 Y93.176 E15.58492
G1 X56.565 Y92.69 E15.60345
G1 X56.55 Y91.092 E15.65754
G1 X55.925 Y90.467 E15.68746
G1 X55.925 Y86.505 E15.82157
G1 X56.55 Y85.88 E15.85149
G1 X56.55 Y79.578 E16.06481
G1 X55.925 Y78.953 E16.09473
G1 X55.925 Y74.991 E16.22884
G1 X56.55 Y74.366 E16.25876
G1 X56.55 Y68.064 E16.47208
G1 X55.925 Y67.439 E16.502
G1 X55.925 Y63.478 E16.63608
G1 X56.55 Y62.852 E16.66602
G1 X56.55 Y56.55 E16.87934
G1 X55.925 Y55.925 E16.90926
G1 X55.925 Y51.964 E17.04334
G1 X56.55 Y51.338 E17.07328
G1 X56.55 Y45.036 E17.2866
G1 X55.925 Y44.411 E17.31652
G1 X55.925 Y40.45 E17.4506
G1 X56.55 Y39.824 E17.48054
G1 X56.55 Y33.522 E17.69386
G1 X55.925 Y32.897 E17.72378
G1 X55.925 Y28.936 E17.85786
G1 X56.55 Y28.31 E17.8878
G1 X56.55 Y22.008 E18.10112
G1 X55.925 Y21.383 E18.13104
G1 X55.925 Y17.422 E18.26512
G1 X56.55 Y16.796 E18.29506
G1 X56.55 Y10.494 E18.50838
G1 X55.925 Y9.869 E18.5383
G1 X55.925 Y7.427 E18.62096
;LAYER_CHANGE
;Z:154.75
;HEIGHT:0.199997
G1 Z154.75 F7200
G1 X57.027 Y7.063
G92 E0
;TYPE:Perimeter
;WIDTH:0.449999
G1 F3600
G1 X57.034 Y7.046 E.00062
G1 X57.378 Y6.867 E.01375
G1 X142.509 Y6.867 E2.89533
