; generated by PrusaSlicer 2.8.0 on 2025-05-26 at 13:24:56 UTC

; 

; external perimeters extrusion width = 0.45mm
; perimeters extrusion width = 0.45mm
; infill extrusion width = 0.45mm
; solid infill extrusion width = 0.45mm
; top infill extrusion width = 0.40mm
; first layer extrusion width = 0.70mm

;TYPE:Custom
G28
M140 S60
M104 S200
M190 S60
M109 S200
G1 Z0.2 F3000
G21 ; set units to millimeters
G90 ; use absolute coordinates
M82 ; use absolute distances for extrusion
G92 E0
; Filament gcode
M107
;LAYER_CHANGE
;Z:0.35
;HEIGHT:0.35
G1 E-6.5 F1500
G1 Z.35 F7200
G1 X74.11 Y74.548
G1 E0 F1500
;TYPE:Skirt/Brim
;WIDTH:0.7
G1 F1800
G1 X76.729 Y72.132 E.324
G1 X79.573 Y69.986 E.64797
G1 X82.613 Y68.128 E.97194
G1 X85.821 Y66.577 E1.29595
G1 X89.165 Y65.348 E1.6199
G1 X92.614 Y64.453 E1.9439
G1 X96.133 Y63.9 E2.26781
G1 X99.69 Y63.695 E2.59178
G1 X103.147 Y63.835 E2.90638
G1 X106.779 Y64.332 E3.23971
G1 X110.242 Y65.169 E3.56367
G1 X113.607 Y66.34 E3.88765
G1 X116.841 Y67.836 E4.21166
G1 X119.912 Y69.642 E4.53561
G1 X122.792 Y71.739 E4.85955
G1 X125.452 Y74.11 E5.18356
G1 X127.868 Y76.729 E5.50756
G1 X130.014 Y79.573 E5.83153
G1 X131.872 Y82.613 E6.1555
G1 X133.423 Y85.821 E6.47951
G1 X134.652 Y89.165 E6.80346
G1 X135.547 Y92.614 E7.12746
G1 X136.1 Y96.133 E7.45137
G1 X136.305 Y99.69 E7.77534
G1 X136.16 Y103.25 E8.09932
G1 X135.668 Y106.779 E8.42331
G1 X134.831 Y110.242 E8.74727
G1 X133.66 Y113.607 E9.07125
G1 X132.164 Y116.841 E9.39526
G1 X130.358 Y119.912 E9.71921
G1 X128.261 Y122.792 E10.04315
G1 X125.89 Y125.452 E10.36716
G1 X123.271 Y127.868 E10.69116
G1 X120.427 Y130.014 E11.01513
G1 X117.387 Y131.872 E11.3391
G1 X114.179 Y133.423 E11.66311
G1 X110.835 Y134.652 E11.98706
G1 X107.386 Y135.547 E12.31106
G1 X103.867 Y136.1 E12.63497
G1 X100.31 Y136.305 E12.95894
G1 X96.75 Y136.16 E13.28292
G1 X93.221 Y135.668 E13.60691
G1 X89.758 Y134.831 E13.93087
G1 X86.393 Y133.66 E14.25485
G1 X83.159 Y132.164 E14.57886
G1 X80.088 Y130.358 E14.90281
G1 X77.208 Y128.261 E15.22675
G1 X74.548 Y125.89 E15.55076
G1 X72.132 Y123.271 E15.87476
G1 X69.986 Y120.427 E16.19873
G1 X68.128 Y117.387 E16.5227
G1 X66.577 Y114.179 E16.84671
G1 X65.348 Y110.835 E17.17066
G1 X64.453 Y107.386 E17.49466
G1 X63.9 Y103.867 E17.81857
G1 X63.695 Y100.31 E18.14254
G1 X63.84 Y96.75 E18.46652
G1 X64.332 Y93.221 E18.79051
G1 X65.169 Y89.758 E19.11447
G1 X66.34 Y86.393 E19.43845
G1 X67.836 Y83.159 E19.76246
G1 X69.642 Y80.088 E20.08641
G1 X71.74 Y77.208 E20.41041
G1 X74.07 Y74.592 E20.72895
G1 E14.22895 F1500
G92 E0
G1 X74.07 Y74.592 F7200
G92 E0
G1 X100.048 Y70.978
G1 E6.5 F1500
;TYPE:Perimeter
;WIDTH:0.7
G1 F1800
G1 X102.744 Y71.111 E6.74544
G1 X105.664 Y71.534 E7.01373
G1 X108.425 Y72.226 E7.27255
G1 X111.107 Y73.185 E7.53154
G1 X113.682 Y74.403 E7.79056
G1 X116.125 Y75.868 E8.04958
G1 X118.413 Y77.564 E8.30855
G1 X120.523 Y79.477 E8.56753
G1 X122.436 Y81.587 E8.82651
G1 X124.133 Y83.875 E9.08554
G1 X125.597 Y86.318 E9.34451
G1 X126.815 Y88.893 E9.60353
G1 X127.774 Y91.575 E9.86252
G1 X128.466 Y94.338 E10.12152
G1 X128.884 Y97.155 E10.38047
G1 X129.024 Y100 E10.63948
G1 X128.884 Y102.845 E10.89849
G1 X128.466 Y105.662 E11.15744
G1 X127.774 Y108.425 E11.41644
G1 X126.815 Y111.107 E11.67543
G1 X125.597 Y113.682 E11.93445
G1 X124.133 Y116.125 E12.19342
G1 X122.436 Y118.413 E12.45245
G1 X120.523 Y120.523 E12.71143
G1 X118.413 Y122.436 E12.97041
G1 X116.125 Y124.133 E13.22944
G1 X113.682 Y125.597 E13.48841
G1 X111.107 Y126.815 E13.74743
G1 X108.425 Y127.774 E14.00642
G1 X105.662 Y128.466 E14.26542
G1 X102.845 Y128.884 E14.52437
G1 X100 Y129.024 E14.78338
G1 X97.155 Y128.884 E15.04239
G1 X94.338 Y128.466 E15.30134
G1 X91.575 Y127.774 E15.56034
G1 X88.893 Y126.815 E15.81933
G1 X86.318 Y125.597 E16.07835
G1 X83.875 Y124.133 E16.33732
G1 X81.587 Y122.436 E16.59635
G1 X79.477 Y120.523 E16.85533
G1 X77.564 Y118.413 E17.11431
G1 X75.868 Y116.125 E17.37328
G1 X74.403 Y113.682 E17.6323
G1 X73.185 Y111.107 E17.89132
G1 X72.226 Y108.425 E18.15031
G1 X71.534 Y105.662 E18.40931
G1 X71.116 Y102.845 E18.66826
G1 X70.976 Y100 E18.92727
G1 X71.116 Y97.155 E19.18628
G1 X71.534 Y94.338 E19.44523
G1 X72.226 Y91.575 E19.70423
G1 X73.185 Y88.893 E19.96322
G1 X74.403 Y86.318 E20.22224
G1 X75.868 Y83.875 E20.48126
G1 X77.564 Y81.587 E20.74023
G1 X79.477 Y79.477 E20.99921
G1 X81.587 Y77.564 E21.25819
G1 X83.875 Y75.868 E21.51716
G1 X86.318 Y74.403 E21.77618
G1 X88.893 Y73.185 E22.0352
G1 X91.575 Y72.226 E22.29419
G1 X94.338 Y71.534 E22.55319
G1 X97.155 Y71.116 E22.81214
G1 X99.988 Y70.977 E23.07005
G1 X99.988 Y70.977 F7200
G1 X100.017 Y70.351
;TYPE:External perimeter
G1 F1800
G1 X102.804 Y70.488 E23.32378
G1 X105.785 Y70.92 E23.59767
G1 X108.607 Y71.627 E23.8622
G1 X111.346 Y72.607 E24.12672
G1 X113.977 Y73.851 E24.39135
G1 X116.472 Y75.347 E24.65588
G1 X118.81 Y77.081 E24.92056
G1 X120.965 Y79.035 E25.18507
G1 X122.919 Y81.191 E25.44965
G1 X124.653 Y83.528 E25.71426
G1 X126.149 Y86.023 E25.97879
G1 X127.393 Y88.654 E26.24342
G1 X128.373 Y91.393 E26.50794
G1 X129.08 Y94.216 E26.77256
G1 X129.507 Y97.094 E27.03712
G1 X129.65 Y100 E27.30168
G1 X129.507 Y102.906 E27.56624
G1 X129.08 Y105.784 E27.8308
G1 X128.373 Y108.607 E28.09542
G1 X127.393 Y111.346 E28.35994
G1 X126.149 Y113.977 E28.62457
G1 X124.653 Y116.472 E28.8891
G1 X122.919 Y118.81 E29.15378
G1 X120.965 Y120.965 E29.41829
G1 X118.81 Y122.919 E29.6828
G1 X116.472 Y124.653 E29.94748
G1 X113.977 Y126.149 E30.21201
G1 X111.346 Y127.393 E30.47664
G1 X108.607 Y128.373 E30.74116
G1 X105.784 Y129.08 E31.00578
G1 X102.906 Y129.507 E31.27034
G1 X100 Y129.65 E31.5349
G1 X97.094 Y129.507 E31.79946
G1 X94.216 Y129.08 E32.06402
G1 X91.393 Y128.373 E32.32864
G1 X88.654 Y127.393 E32.59316
G1 X86.023 Y126.149 E32.85779
G1 X83.528 Y124.653 E33.12232
G1 X81.191 Y122.919 E33.38693
G1 X79.035 Y120.965 E33.65151
G1 X77.081 Y118.81 E33.91602
G1 X75.347 Y116.472 E34.1807
G1 X73.851 Y113.977 E34.44523
G1 X72.607 Y111.346 E34.70986
G1 X71.627 Y108.607 E34.97438
G1 X70.92 Y105.784 E35.239
G1 X70.493 Y102.906 E35.50356
G1 X70.35 Y100 E35.76812
G1 X70.493 Y97.094 E36.03268
G1 X70.92 Y94.216 E36.29724
G1 X71.627 Y91.393 E36.56186
G1 X72.607 Y88.654 E36.82638
G1 X73.851 Y86.023 E37.09101
G1 X75.347 Y83.528 E37.35554
G1 X77.081 Y81.191 E37.62015
G1 X79.035 Y79.035 E37.88473
G1 X81.191 Y77.081 E38.14931
G1 X83.528 Y75.347 E38.41392
G1 X86.023 Y73.851 E38.67845
G1 X88.654 Y72.607 E38.94308
G1 X91.393 Y71.627 E39.2076
G1 X94.216 Y70.92 E39.47222
G1 X97.094 Y70.493 E39.73678
G1 X99.957 Y70.353 E39.99742
G1 X100.357 Y70.369 F7200
G1 E33.49742 F1500
G92 E0
G1 X117.507 Y77.126 F7200
G1 E6.5 F1500
;TYPE:Solid infill
;WIDTH:0.702665
G1 F1800
G1 X120.205 Y79.824 E6.84843
G1 X122.073 Y81.885 E7.10244
G1 X123.742 Y84.136 E7.35833
G1 X123.911 Y84.418 E7.38835
G1 X115.582 Y76.089 E8.46398
G1 X113.389 Y74.783 E8.69706
G1 X125.217 Y86.611 E10.22455
G1 X126.013 Y88.295 E10.39464
G1 X111.705 Y73.987 E12.24241
G1 X110.927 Y73.619 E12.321
G1 X110.184 Y73.353 E12.39307
G1 X126.647 Y89.816 E14.51914
G1 X127.142 Y91.198 E14.65319
G1 X108.802 Y72.858 E17.02166
G1 X108.289 Y72.675 E17.0714
G1 X107.544 Y72.488 E17.14154
G1 X127.512 Y92.456 E19.72025
G1 X127.808 Y93.64 E19.8317
G1 X106.36 Y72.192 E22.60154
G1 X105.573 Y71.995 E22.67562
G1 X105.225 Y71.944 E22.70774
G1 X128.058 Y94.776 E25.65638
G1 X128.212 Y95.819 E25.75266
G1 X104.187 Y71.794 E28.8553
G1 X103.149 Y71.643 E28.95109
G1 X128.367 Y96.861 E32.2078
G1 X128.417 Y97.201 E32.23918
G1 X128.448 Y97.83 E32.29669
G1 X102.171 Y71.552 E35.69022
G1 X101.237 Y71.506 E35.77561
G1 X128.494 Y98.763 E39.29564
G1 X128.54 Y99.696 E39.38094
G1 X100.304 Y71.46 E43.0274
G1 X100 Y71.445 E43.05519
G1 X99.429 Y71.473 E43.10739
G1 X128.527 Y100.571 E46.86517
G1 X128.485 Y101.417 E46.94252
G1 X98.583 Y71.515 E50.80413
G1 X97.738 Y71.556 E50.88138
G1 X128.444 Y102.262 E54.84682
G1 X128.417 Y102.799 E54.89592
G1 X128.375 Y103.082 E54.92205
G1 X96.918 Y71.625 E58.98448
G1 X96.146 Y71.739 E59.05574
G1 X128.261 Y103.855 E63.20321
G1 X128.146 Y104.627 E63.27448
G1 X95.373 Y71.854 E67.50686
G1 X94.6 Y71.969 E67.57823
G1 X128.031 Y105.4 E71.89558
G1 X128.006 Y105.571 E71.91136
G1 X127.867 Y106.124 E71.96343
G1 X93.876 Y72.133 E76.3531
G1 X93.166 Y72.31 E76.41992
G1 X127.69 Y106.834 E80.87842
G1 X127.512 Y107.543 E80.94517
G1 X92.457 Y72.488 E85.47225
G1 X91.747 Y72.666 E85.53909
G1 X127.334 Y108.253 E90.13487
G1 X127.103 Y108.909 E90.19838
G1 X91.091 Y72.897 E94.84905
G1 X90.437 Y73.131 E94.91248
G1 X126.869 Y109.563 E99.61739
G1 X126.635 Y110.217 E99.68082
G1 X89.783 Y73.365 E104.43997
G1 X89.13 Y73.598 E104.50328
G1 X126.402 Y110.87 E109.31667
G1 X126.121 Y111.477 E109.37775
G1 X88.523 Y73.879 E114.23324
G1 X87.92 Y74.164 E114.29414
G1 X125.836 Y112.08 E119.1907
G1 X125.551 Y112.682 E119.25152
G1 X87.318 Y74.449 E124.18901
G1 X86.715 Y74.734 E124.24991
G1 X125.266 Y113.285 E129.22847
G1 X125.183 Y113.461 E129.24624
G1 X124.947 Y113.854 E129.2881
G1 X86.146 Y75.053 E134.29895
G1 X85.591 Y75.385 E134.35801
G1 X124.615 Y114.409 E139.39765
G1 X124.282 Y114.964 E139.45675
G1 X85.037 Y75.718 E144.525
G1 X84.482 Y76.05 E144.58406
G1 X123.95 Y115.518 E149.68104
G1 X123.742 Y115.864 E149.71791
G1 X123.6 Y116.056 E149.73972
G1 X83.944 Y76.4 E154.86098
G1 X83.434 Y76.778 E154.91895
G1 X123.222 Y116.566 E160.05726
G1 X122.844 Y117.075 E160.11516
G1 X82.925 Y77.156 E165.27039
G1 X82.415 Y77.534 E165.32836
G1 X122.466 Y117.585 E170.50063
G1 X122.088 Y118.095 E170.5586
G1 X81.906 Y77.912 E175.74786
G1 X81.438 Y78.332 E175.80528
G1 X121.668 Y118.562 E181.00067
G1 X121.246 Y119.027 E181.05801
G1 X80.973 Y78.754 E186.25895
G1 X80.507 Y79.176 E186.31636
G1 X120.824 Y119.493 E191.52299
G1 X120.402 Y119.958 E191.58033
G1 X80.042 Y79.598 E196.79251
G1 X79.809 Y79.809 E196.82121
G1 X79.598 Y80.042 E196.84991
G1 X119.958 Y120.402 E202.06209
G1 X119.493 Y120.824 E202.11943
G1 X79.176 Y80.507 E207.32606
G1 X78.754 Y80.973 E207.38347
G1 X119.027 Y121.246 E212.58441
G1 X118.562 Y121.668 E212.64175
G1 X78.332 Y81.438 E217.83714
G1 X77.912 Y81.906 E217.89456
G1 X118.095 Y122.088 E223.08382
G1 X117.585 Y122.466 E223.14179
G1 X77.534 Y82.415 E228.31406
G1 X77.156 Y82.925 E228.37203
G1 X117.075 Y122.844 E233.52726
G1 X116.566 Y123.222 E233.58516
G1 X76.778 Y83.434 E238.72347
G1 X76.4 Y83.944 E238.78144
G1 X116.056 Y123.6 E243.9027
G1 X115.864 Y123.742 E243.92451
G1 X115.518 Y123.95 E243.96138
G1 X76.05 Y84.482 E249.05836
G1 X75.718 Y85.037 E249.11742
G1 X114.963 Y124.282 E254.18561
G1 X114.409 Y124.615 E254.24464
G1 X75.385 Y85.591 E259.28428
G1 X75.053 Y86.146 E259.34334
G1 X113.854 Y124.947 E264.35419
G1 X113.461 Y125.183 E264.39605
G1 X113.285 Y125.266 E264.41382
G1 X74.734 Y86.715 E269.39238
G1 X74.449 Y87.318 E269.45328
G1 X112.682 Y125.551 E274.39077
G1 X112.08 Y125.836 E274.45159
G1 X74.164 Y87.92 E279.34815
G1 X73.879 Y88.523 E279.40905
G1 X111.477 Y126.121 E284.26454
G1 X110.87 Y126.402 E284.32562
G1 X73.598 Y89.13 E289.13901
G1 X73.365 Y89.783 E289.20232
G1 X110.217 Y126.635 E293.96147
G1 X109.563 Y126.869 E294.0249
G1 X73.131 Y90.437 E298.72981
G1 X72.897 Y91.091 E298.79324
G1 X108.909 Y127.103 E303.44391
G1 X108.253 Y127.334 E303.50742
G1 X72.666 Y91.747 E308.1032
G1 X72.488 Y92.457 E308.17004
G1 X107.543 Y127.512 E312.69712
G1 X106.834 Y127.69 E312.76387
G1 X72.31 Y93.166 E317.22237
G1 X72.133 Y93.876 E317.28919
G1 X106.124 Y127.868 E321.67893
G1 X105.571 Y128.006 E321.73098
G1 X105.4 Y128.031 E321.74676
G1 X71.969 Y94.6 E326.06411
G1 X71.854 Y95.373 E326.13548
G1 X104.627 Y128.146 E330.36786
G1 X103.854 Y128.261 E330.43923
G1 X71.739 Y96.146 E334.58663
G1 X71.625 Y96.918 E334.65789
G1 X103.082 Y128.375 E338.72032
G1 X102.799 Y128.417 E338.74645
G1 X102.262 Y128.444 E338.79555
G1 X71.556 Y97.738 E342.76099
G1 X71.515 Y98.584 E342.83834
G1 X101.417 Y128.485 E346.69989
G1 X100.571 Y128.527 E346.77724
G1 X71.473 Y99.429 E350.53502
G1 X71.445 Y100 E350.58722
G1 X71.46 Y100.304 E350.61501
G1 X99.696 Y128.54 E354.26147
G1 X98.763 Y128.494 E354.34677
G1 X71.506 Y101.237 E357.8668
G1 X71.552 Y102.171 E357.95219
G1 X97.829 Y128.448 E361.34566
G1 X97.201 Y128.417 E361.40308
G1 X96.861 Y128.367 E361.43446
G1 X71.633 Y103.139 E364.69246
G1 X71.788 Y104.181 E364.78866
G1 X95.819 Y128.212 E367.89208
G1 X94.776 Y128.058 E367.98836
G1 X71.942 Y105.224 E370.93719
G1 X71.994 Y105.571 E370.96923
G1 X72.192 Y106.36 E371.04351
G1 X93.64 Y127.808 E373.81335
G1 X92.456 Y127.512 E373.9248
G1 X72.488 Y107.544 E376.50351
G1 X72.675 Y108.289 E376.57365
G1 X72.858 Y108.802 E376.62339
G1 X91.198 Y127.142 E378.99186
G1 X89.816 Y126.647 E379.12591
G1 X73.353 Y110.184 E381.25198
G1 X73.619 Y110.927 E381.32405
G1 X73.987 Y111.705 E381.40264
G1 X88.295 Y126.013 E383.25041
G1 X86.611 Y125.217 E383.4205
G1 X74.783 Y113.389 E384.94799
G1 X76.089 Y115.582 E385.18107
G1 X84.418 Y123.911 E386.2567
G1 X84.136 Y123.742 E386.28672
G1 X81.885 Y122.073 E386.54261
G1 X79.824 Y120.205 E386.79662
G1 X77.126 Y117.507 E387.14505
;LAYER_CHANGE
;Z:0.55
;HEIGHT:0.2
G1 Z.55 F7200
G1 E380.64505 F1500
G92 E0
G1 Z.55 F7200
G1 X100.031 Y70.634
G1 E6.5 F1500
G92 E0
;TYPE:Perimeter
;WIDTH:0.449999
G1 F3600
G1 X102.878 Y70.774 E.09648
G1 X105.729 Y71.197 E.19404
G1 X108.525 Y71.897 E.2916
G1 X111.238 Y72.868 E.38914
G1 X113.844 Y74.1 E.48671
G1 X116.316 Y75.582 E.58427
G1 X118.63 Y77.299 E.6818
G1 X120.766 Y79.234 E.77936
G1 X122.701 Y81.37 E.87692
G1 X124.418 Y83.684 E.97445
G1 X125.9 Y86.156 E1.07201
G1 X127.132 Y88.762 E1.16958
G1 X128.103 Y91.475 E1.26712
G1 X128.803 Y94.271 E1.36468
G1 X129.226 Y97.122 E1.46224
G1 X129.367 Y100 E1.55977
G1 X129.226 Y102.878 E1.6573
G1 X128.803 Y105.729 E1.75486
G1 X128.103 Y108.525 E1.85242
G1 X127.132 Y111.238 E1.94996
G1 X125.9 Y113.844 E2.04753
G1 X124.418 Y116.316 E2.14509
G1 X122.701 Y118.63 E2.24262
G1 X120.766 Y120.766 E2.34018
G1 X118.63 Y122.701 E2.43774
G1 X116.316 Y124.418 E2.53527
G1 X113.844 Y125.9 E2.63283
G1 X111.238 Y127.132 E2.7304
G1 X108.525 Y128.103 E2.82794
G1 X105.729 Y128.803 E2.9255
G1 X102.878 Y129.226 E3.02306
G1 X100 Y129.367 E3.12059
G1 X97.122 Y129.226 E3.21812
G1 X94.271 Y128.803 E3.31568
G1 X91.475 Y128.103 E3.41324
G1 X88.762 Y127.132 E3.51078
G1 X86.156 Y125.9 E3.60835
G1 X83.684 Y124.418 E3.70591
G1 X81.37 Y122.701 E3.80344
G1 X79.234 Y120.766 E3.901
G1 X77.299 Y118.63 E3.99856
G1 X75.582 Y116.316 E4.09609
G1 X74.1 Y113.844 E4.19365
G1 X72.868 Y111.238 E4.29122
G1 X71.897 Y108.525 E4.38876
G1 X71.197 Y105.729 E4.48632
G1 X70.774 Y102.878 E4.58388
G1 X70.633 Y100 E4.68141
G1 X70.774 Y97.122 E4.77894
G1 X71.197 Y94.271 E4.8765
G1 X71.897 Y91.475 E4.97406
G1 X72.868 Y88.762 E5.0716
G1 X74.1 Y86.156 E5.16917
G1 X75.582 Y83.684 E5.26673
G1 X77.299 Y81.37 E5.36426
G1 X79.234 Y79.234 E5.46182
G1 X81.37 Y77.299 E5.55938
G1 X83.684 Y75.582 E5.65691
G1 X86.156 Y74.1 E5.75447
G1 X88.762 Y72.868 E5.85204
G1 X91.475 Y71.897 E5.94958
G1 X94.271 Y71.197 E6.04714
G1 X97.122 Y70.774 E6.1447
G1 X99.971 Y70.634 E6.24125
G1 X99.971 Y70.634 F7200
G1 X100.011 Y70.226
;TYPE:External perimeter
G1 F1800
G1 X102.918 Y70.369 E6.33977
G1 X105.809 Y70.797 E6.43869
G1 X108.643 Y71.507 E6.53758
G1 X111.394 Y72.492 E6.63649
G1 X114.036 Y73.741 E6.73541
G1 X116.542 Y75.243 E6.8343
G1 X118.889 Y76.984 E6.93321
G1 X121.054 Y78.946 E7.03211
G1 X123.016 Y81.111 E7.13101
G1 X124.757 Y83.458 E7.22992
G1 X126.259 Y85.964 E7.32881
G1 X127.508 Y88.606 E7.42773
G1 X128.493 Y91.357 E7.52664
G1 X129.203 Y94.191 E7.62553
G1 X129.631 Y97.082 E7.72445
G1 X129.775 Y100 E7.82334
G1 X129.631 Y102.918 E7.92223
G1 X129.203 Y105.809 E8.02115
G1 X128.493 Y108.643 E8.12004
G1 X127.508 Y111.394 E8.21895
G1 X126.259 Y114.036 E8.31787
G1 X124.757 Y116.542 E8.41676
G1 X123.016 Y118.889 E8.51567
G1 X121.054 Y121.054 E8.61457
G1 X118.889 Y123.016 E8.71347
G1 X116.542 Y124.757 E8.81238
G1 X114.036 Y126.259 E8.91127
G1 X111.394 Y127.508 E9.01019
G1 X108.643 Y128.493 E9.1091
G1 X105.809 Y129.203 E9.20799
G1 X102.918 Y129.631 E9.30691
G1 X100 Y129.775 E9.4058
G1 X97.082 Y129.631 E9.50469
G1 X94.191 Y129.203 E9.60361
G1 X91.357 Y128.493 E9.7025
G1 X88.606 Y127.508 E9.80141
G1 X85.964 Y126.259 E9.90033
